X:232
T:Merry Harriers
Z: id:dc-reel-213
M:C
L:1/8
K:A Dorian
gfg|eAA2 eAgA|eAA2 BGBd|eAA2 egg2|abge d:|!
K: G Major
cBc|dggf g2bg|efgd BGBc|dggf gabg|abge d:|!

